X:460
T: Zhanzai lengkanshang manhuar
N: C2078
O: China,Qinghai Haibei 
S: I, 235, 1)]
N: Hui Han
R: Shange, Yangliujieling]
M: 2/4
L: 1/16
K: A
e4^d2e2 | f4bca2 | b8- | b6e2 | a3ba2f2 | e6^d2 |
e4=d2e2 | f4b2c2 | a2b2bcf2 | e4f2ef | e2^d2B4 | e2d2e2f2 | e8- | e2z6 |

@@@ Tune index: 7015
